X:594
T: WENN ICH AN DEN LETZTEN ABEND GEDENNCK
N: E0555
O: Europa, Mitteleuropa, Deutschland, Hessen, Odenwald; Bergstrasse
R: Liebes - Lied, Abschied
M: 4/4
L: 1/8
K: D
D,F, | A,2A,2A,2B,A, | A,G,G,F,G,2
A,G, | F,2F,2A,2G,F, | E,4z2
D,D, | B,2B,B,B,2DB, | B,A,A,A,D2
DD | E2E2C2B,C | D4z2
D,F, | A,A,A,A,A,2
DC | B,B,B,B,B,2
ED | C2A,2A,2B,C | D4z2
D,F, | A,A,A,A,A,2
DC | B,B,B,B,B,2
ED | C2A,2A,2B,C | D4z2

